material/.icons/material/border-left-variant.svg

<svg xmlns="http://www.w3.org/2000/svg" viewBox="0 0 24 24"><path d="M15 5h2V3h-2m4 18h2v-2h-2m0-6h2v-2h-2m0-6h2V3h-2m0 14h2v-2h-2m-4 6h2v-2h-2m4-10h2V7h-2M3 21h2V3H3m4 2h2V3H7m0 18h2v-2H7m4-14h2V3h-2m0 18h2v-2h-2v2z"/></svg>

<?xml version="1.0" encoding="UTF-8"?><!DOCTYPE svg PUBLIC "-//W3C//DTD SVG 1.1//EN" "http://www.w3.org/Graphics/SVG/1.1/DTD/svg11.dtd"><svg xmlns="http://www.w3.org/2000/svg" xmlns:xlink="http://www.w3.org/1999/xlink" version="1.1" id="mdi-border-left-variant" width="24" height="24" viewBox="0 0 24 24"><path d="M15,5H17V3H15M19,21H21V19H19M19,13H21V11H19M19,5H21V3H19M19,17H21V15H19M15,21H17V19H15M19,9H21V7H19M3,21H5V3H3M7,5H9V3H7M7,21H9V19H7M11,5H13V3H11M11,21H13V19H11V21Z" /></svg>
